X:91
T: Es gung ein Jger wohl jagen (1-15), S. 40
N: K0091
O: Luxemburg
S: KINTZELE, Guillaume: An der Ucht, Bd. 1, Luxemburg 1926]
N: in der Quelle mit einer 2. Stimme versehen
R: Verfhrung, Beischlaf]
M: 4/4
L: 1/8
K: G
DD | B3AGGFG | A2D2z2
DD | c2c2A2A2 | B4z2
GA | BBBBB2B2 | B2d2d2
dd | ccc2A2A2 | B4z2
GA | BBBBB2B2 | B2d2d2
dd | ccc2A2A2 | B4z2

@@@ Tune index: 8145
